packages/components/icon/src/assets/icons/broadcast-message.svg

<svg width="24" height="24" viewBox="0 0 24 24" fill="none" xmlns="http://www.w3.org/2000/svg">
<path fill-rule="evenodd" clip-rule="evenodd" d="M12.0682 3C13.717 3 15.2355 3.40857 16.624 4.22572C18.0124 5.04288 19.1116 6.14565 19.9215 7.53409C20.7314 8.92253 21.1364 10.4339 21.1364 12.0682C21.1364 13.5145 20.8182 14.8667 20.1818 16.125C19.5455 17.3833 18.6777 18.4318 17.5785 19.2707C17.5207 19.3285 17.4411 19.3574 17.3399 19.3574C17.2676 19.3574 17.1989 19.3357 17.1338 19.2924C17.0687 19.249 17.0217 19.1911 16.9928 19.1188L16.5589 18.2293C16.53 18.1426 16.5155 18.063 16.5155 17.9907C16.5155 17.7882 16.5878 17.6291 16.7324 17.5134C17.5134 16.8337 18.1245 16.0238 18.5656 15.0837C19.0067 14.1436 19.2273 13.1384 19.2273 12.0682C19.2273 10.7665 18.9055 9.56974 18.2619 8.47779C17.6183 7.38584 16.7505 6.51808 15.6586 5.87448C14.5666 5.23089 13.3698 4.90909 12.0682 4.90909C10.7665 4.90909 9.56974 5.23089 8.47779 5.87448C7.38584 6.51808 6.51808 7.38584 5.87448 8.47779C5.23089 9.56974 4.90909 10.7665 4.90909 12.0682C4.90909 13.1384 5.12965 14.1436 5.57076 15.0837C6.01188 16.0238 6.62293 16.8337 7.40393 17.5134C7.54855 17.6291 7.62087 17.7882 7.62087 17.9907C7.62087 18.063 7.60641 18.1426 7.57748 18.2293L7.1436 19.1188C7.11467 19.1911 7.06767 19.249 7.00258 19.2924C6.9375 19.3357 6.8688 19.3574 6.79649 19.3574C6.69525 19.3574 6.6157 19.3285 6.55785 19.2707C5.45867 18.4318 4.59091 17.3833 3.95455 16.125C3.31818 14.8667 3 13.5145 3 12.0682C3 10.4339 3.40495 8.92253 4.21488 7.53409C5.0248 6.14565 6.12396 5.04288 7.5124 4.22572C8.90083 3.40857 10.4194 3 12.0682 3ZM12.0682 6.81818C13.0227 6.81818 13.9013 7.0532 14.704 7.52324C15.5067 7.99329 16.1431 8.63326 16.6131 9.44318C17.0832 10.2531 17.3182 11.1281 17.3182 12.0682C17.3182 12.7624 17.1916 13.4205 16.9385 14.0424C16.6854 14.6643 16.3275 15.2138 15.8647 15.6911C15.8068 15.7779 15.72 15.8213 15.6043 15.8213C15.4886 15.8213 15.3946 15.749 15.3223 15.6043L14.8667 14.6281C14.8233 14.5413 14.8017 14.4329 14.8017 14.3027C14.8017 14.1002 14.845 13.9339 14.9318 13.8037C15.25 13.2831 15.4091 12.7045 15.4091 12.0682C15.4091 11.4607 15.2608 10.9003 14.9644 10.3869C14.6679 9.87345 14.2629 9.46849 13.7495 9.172C13.2361 8.87551 12.6756 8.72727 12.0682 8.72727C11.4607 8.72727 10.9003 8.87551 10.3869 9.172C9.87345 9.46849 9.46849 9.87345 9.172 10.3869C8.87551 10.9003 8.72727 11.4607 8.72727 12.0682C8.72727 12.7045 8.88636 13.2831 9.20455 13.8037C9.29132 13.9339 9.33471 14.1002 9.33471 14.3027C9.33471 14.4329 9.31302 14.5413 9.26963 14.6281L8.81405 15.6043C8.74173 15.749 8.64773 15.8213 8.53202 15.8213C8.43078 15.8213 8.34401 15.7779 8.27169 15.6911C7.80888 15.2138 7.45093 14.6643 7.19783 14.0424C6.94473 13.4205 6.81818 12.7624 6.81818 12.0682C6.81818 11.1281 7.0532 10.2531 7.52324 9.44318C7.99329 8.63326 8.62964 7.99329 9.43233 7.52324C10.235 7.0532 11.1136 6.81818 12.0682 6.81818ZM12.0682 10.1591C12.6033 10.1591 13.0553 10.3471 13.4241 10.7231C13.7929 11.0992 13.9773 11.5475 13.9773 12.0682C13.9773 12.6033 13.7929 13.0553 13.4241 13.4241C13.0553 13.7929 12.6033 13.9773 12.0682 13.9773C11.5331 13.9773 11.0811 13.7929 10.7123 13.4241C10.3435 13.0553 10.1591 12.6033 10.1591 12.0682C10.1591 11.5475 10.3435 11.0992 10.7123 10.7231C11.0811 10.3471 11.5331 10.1591 12.0682 10.1591ZM13.2397 15.2355C13.4566 15.2355 13.6085 15.3295 13.6952 15.5176L15.7562 19.8347C15.7851 19.9215 15.7996 19.9866 15.7996 20.03C15.7996 20.1312 15.7743 20.2216 15.7237 20.3011C15.673 20.3807 15.6043 20.4349 15.5176 20.4638C14.4184 20.9122 13.2686 21.1364 12.0682 21.1364C10.8678 21.1364 9.71798 20.9122 8.6188 20.4638C8.53202 20.4349 8.46333 20.3807 8.41271 20.3011C8.36209 20.2216 8.33678 20.1312 8.33678 20.03C8.33678 19.9866 8.35124 19.9215 8.38017 19.8347L10.4411 15.5176C10.5424 15.3295 10.6942 15.2355 10.8967 15.2355C10.9401 15.2355 11.0052 15.25 11.0919 15.2789C11.3957 15.3657 11.7211 15.4091 12.0682 15.4091C12.4153 15.4091 12.7407 15.3657 13.0444 15.2789C13.1312 15.25 13.1963 15.2355 13.2397 15.2355Z" fill="currentColor"/>
</svg>

<svg viewBox="0 0 24 24" fill="none" xmlns="http://www.w3.org/2000/svg"><path fill-rule="evenodd" clip-rule="evenodd" d="M12.068 3c1.649 0 3.168.409 4.556 1.226a9.098 9.098 0 0 1 3.298 3.308 8.84 8.84 0 0 1 1.214 4.534 8.862 8.862 0 0 1-.954 4.057 9.023 9.023 0 0 1-2.604 3.146.323.323 0 0 1-.238.086.366.366 0 0 1-.206-.065.369.369 0 0 1-.141-.173l-.434-.89a.76.76 0 0 1-.044-.238.58.58 0 0 1 .217-.478 7.292 7.292 0 0 0 1.834-2.43c.44-.94.661-1.945.661-3.015a6.943 6.943 0 0 0-.965-3.59 7.245 7.245 0 0 0-2.603-2.604 6.943 6.943 0 0 0-3.59-.965 6.943 6.943 0 0 0-3.591.965 7.245 7.245 0 0 0-2.604 2.604 6.943 6.943 0 0 0-.965 3.59 7 7 0 0 0 .662 3.016 7.293 7.293 0 0 0 1.833 2.43.578.578 0 0 1 .217.477.76.76 0 0 1-.044.238l-.433.89a.369.369 0 0 1-.141.173.366.366 0 0 1-.207.065.323.323 0 0 1-.238-.086 9.024 9.024 0 0 1-2.603-3.146A8.863 8.863 0 0 1 3 12.068a8.84 8.84 0 0 1 1.215-4.534 9.098 9.098 0 0 1 3.297-3.308A8.826 8.826 0 0 1 12.068 3Zm0 3.818c.955 0 1.833.235 2.636.705.803.47 1.44 1.11 1.91 1.92.47.81.704 1.685.704 2.625 0 .694-.126 1.353-.38 1.974a5.115 5.115 0 0 1-1.073 1.65.292.292 0 0 1-.26.13c-.116 0-.21-.073-.283-.218l-.455-.976a.724.724 0 0 1-.065-.325c0-.203.043-.37.13-.5.318-.52.477-1.099.477-1.735 0-.607-.148-1.168-.445-1.681a3.265 3.265 0 0 0-1.215-1.215 3.303 3.303 0 0 0-1.68-.445c-.608 0-1.169.149-1.682.445a3.265 3.265 0 0 0-1.215 1.215 3.303 3.303 0 0 0-.445 1.681c0 .636.16 1.215.478 1.736.086.13.13.296.13.499a.73.73 0 0 1-.065.325l-.456.976c-.072.145-.166.217-.282.217a.328.328 0 0 1-.26-.13 5.115 5.115 0 0 1-1.074-1.649 5.187 5.187 0 0 1-.38-1.974c0-.94.235-1.815.705-2.625a5.228 5.228 0 0 1 1.91-1.92 5.123 5.123 0 0 1 2.635-.705Zm0 3.341c.535 0 .987.188 1.356.564.369.376.553.824.553 1.345 0 .535-.184.987-.553 1.356-.369.369-.82.553-1.356.553-.535 0-.987-.184-1.356-.553a1.844 1.844 0 0 1-.553-1.356c0-.52.184-.969.553-1.345.37-.376.821-.564 1.356-.564Zm1.172 5.076c.217 0 .368.095.455.283l2.061 4.317a.69.69 0 0 1 .044.195.494.494 0 0 1-.076.271.382.382 0 0 1-.206.163 9.046 9.046 0 0 1-3.45.672 9.06 9.06 0 0 1-3.45-.672.381.381 0 0 1-.205-.163.494.494 0 0 1-.076-.271c0-.043.014-.108.043-.195l2.061-4.317a.489.489 0 0 1 .456-.283c.043 0 .108.015.195.044.304.087.63.13.976.13.347 0 .673-.043.976-.13a.69.69 0 0 1 .196-.043Z" fill="currentColor"/></svg>
